svgs/light/heading.svg

<svg xmlns="http://www.w3.org/2000/svg" viewBox="0 0 448 512"><!-- Font Awesome Pro 6.0.0-alpha2 by @fontawesome - https://fontawesome.com License - https://fontawesome.com/license (Commercial License) --><path d="M448 464C448 472.799 440.801 480 432 480H304C295.199 480 288 472.799 288 464C288 455.199 295.199 448 304 448H352V256H96V448H144C152.801 448 160 455.199 160 464C160 472.799 152.801 480 144 480H16C7.199 480 0 472.799 0 464C0 455.199 7.199 448 16 448H64V64H16C7.199 64 0 56.799 0 48C0 39.199 7.199 32 16 32H144C152.801 32 160 39.199 160 48C160 56.799 152.801 64 144 64H96V224H352V64H304C295.199 64 288 56.799 288 48C288 39.199 295.199 32 304 32H432C440.801 32 448 39.199 448 48C448 56.799 440.801 64 432 64H384V448H432C440.801 448 448 455.199 448 464Z"/></svg>

<svg xmlns="http://www.w3.org/2000/svg" viewBox="0 0 448 512"><!--! Font Awesome Pro 6.3.0 by @fontawesome - https://fontawesome.com License - https://fontawesome.com/license (Commercial License) Copyright 2023 Fonticons, Inc. --><path d="M448 464c0 8.799-7.199 16-16 16h-128c-8.801 0-16-7.201-16-16c0-8.801 7.199-16 16-16H352V256H96v192h48C152.8 448 160 455.2 160 464C160 472.8 152.8 480 144 480h-128C7.199 480 0 472.8 0 464C0 455.2 7.199 448 16 448H64V64H16C7.199 64 0 56.8 0 48C0 39.2 7.199 32 16 32h128C152.8 32 160 39.2 160 48C160 56.8 152.8 64 144 64H96v160h256V64h-48C295.2 64 288 56.8 288 48C288 39.2 295.2 32 304 32h128C440.8 32 448 39.2 448 48C448 56.8 440.8 64 432 64H384v384h48C440.8 448 448 455.2 448 464z"/></svg>
